dist/img/icon-burger-mobile.svg

<svg width="16" height="14" viewBox="0 0 16 14" fill="none" xmlns="http://www.w3.org/2000/svg">
<path d="M15.3537 6.00781H0.646312C0.289375 6.00781 0 6.3624 0 6.79987C0 7.23734 0.289375 7.59193 0.646312 7.59193H15.3537C15.7107 7.59193 16 7.23734 16 6.79987C16 6.36244 15.7107 6.00781 15.3537 6.00781Z" fill="#2C3D52"/>
<path d="M15.3537 0H0.646312C0.289375 0 0 0.35463 0 0.792059C0 1.22949 0.289375 1.58412 0.646312 1.58412H15.3537C15.7107 1.58412 16 1.22949 16 0.792059C16 0.35463 15.7107 0 15.3537 0Z" fill="#2C3D52"/>
<path d="M15.3537 12.0156H0.646312C0.289375 12.0156 0 12.3702 0 12.8077C0 13.2452 0.289375 13.5997 0.646312 13.5997H15.3537C15.7107 13.5997 16 13.2452 16 12.8077C16 12.3702 15.7107 12.0156 15.3537 12.0156Z" fill="#2C3D52"/>
</svg>

<svg xmlns="http://www.w3.org/2000/svg" width="16" height="14" fill="none" viewBox="0 0 16 14"><path fill="#2C3D52" d="M15.354 6.008H.646C.29 6.008 0 6.362 0 6.8c0 .437.29.792.646.792h14.708c.357 0 .646-.355.646-.792s-.29-.792-.646-.792m0-6.008H.646C.29 0 0 .355 0 .792s.29.792.646.792h14.708c.357 0 .646-.355.646-.792S15.71 0 15.354 0m0 12.016H.646c-.357 0-.646.354-.646.792 0 .437.29.792.646.792h14.708c.357 0 .646-.355.646-.792s-.29-.792-.646-.792"/></svg>
